www/assets/icons/thumb_up_alt.svg

<svg xmlns="http://www.w3.org/2000/svg" width="24" height="24" viewBox="0 0 24 24" fill='currentColor'><path d="M2 21h2c.55 0 1-.45 1-1v-9c0-.55-.45-1-1-1H2zm19.83-7.12c.11-.25.17-.52.17-.8V12c0-1.1-.9-2-2-2h-5.5l.92-4.65c.05-.22.02-.46-.08-.66a4.8 4.8 0 0 0-.88-1.22L14 3 7.59 9.41c-.38.38-.59.89-.59 1.42v7.84A2.34 2.34 0 0 0 9.34 21h8.11c.7 0 1.36-.37 1.72-.97z"/></svg>

<svg width="24" height="24" viewBox="0 0 24 24" xmlns="http://www.w3.org/2000/svg" fill='currentColor'><path d="M2 21H4C4.55 21 5 20.55 5 20V11C5 10.45 4.55 10 4 10H2V21ZM21.83 13.88C21.94 13.63 22 13.36 22 13.08V12C22 10.9 21.1 10 20 10H14.5L15.42 5.35C15.47 5.13 15.44 4.89 15.34 4.69C15.11 4.24 14.82 3.83 14.46 3.47L14 3L7.59 9.41C7.21 9.79 7 10.3 7 10.83V18.67C7 19.95 8.05 21 9.34 21H17.45C18.15 21 18.81 20.63 19.17 20.03L21.83 13.88Z"/></svg>
